src/ui/assets/img/transactions/t-set-script-cancel-48.svg

<svg width="48" height="48" viewBox="0 0 48 48" fill="none" xmlns="http://www.w3.org/2000/svg">
    <circle cx="24" cy="24" r="24" fill="#EF4829" fill-opacity="0.1"/>
    <path fill-rule="evenodd" clip-rule="evenodd" d="M36.1245 28.6995C36.6973 29.5721 37.0017 30.5936 37 31.6375C37 34.5992 34.5992 37 31.6375 37C30.553 37 29.5435 36.6783 28.6995 36.1245C27.2008 36.705 25.6072 37.0019 24 37C16.8204 37 11 31.1796 11 24C11 16.8204 16.8204 11 24 11C31.1796 11 37 16.8204 37 24C37 25.6575 36.69 27.2422 36.1245 28.6995ZM35.4049 27.8214C35.8169 26.5895 36.0263 25.2989 36.025 24C36.025 17.3586 30.6414 11.975 24 11.975C17.3586 11.975 11.975 17.3586 11.975 24C11.975 30.6414 17.3586 36.025 24 36.025C25.3357 36.025 26.6208 35.8072 27.8214 35.4049C26.829 34.4023 26.2731 33.0481 26.275 31.6375C26.275 28.6758 28.6758 26.275 31.6375 26.275C33.1059 26.275 34.4367 26.8652 35.4049 27.8214ZM31.6375 36.025C34.0607 36.025 36.025 34.0607 36.025 31.6375C36.025 29.2143 34.0607 27.25 31.6375 27.25C29.2143 27.25 27.25 29.2143 27.25 31.6375C27.25 34.0607 29.2143 36.025 31.6375 36.025Z" fill="#EF4829"/>
    <path d="M36.1245 28.6995L35.9846 28.6452L35.9567 28.7172L35.9991 28.7818L36.1245 28.6995ZM37 31.6375L36.85 31.6373V31.6375H37ZM28.6995 36.1245L28.7818 35.999L28.7173 35.9567L28.6453 35.9846L28.6995 36.1245ZM24 37L24.0002 36.85H24V37ZM35.4049 27.8214L35.2995 27.9281L35.4708 28.0972L35.5472 27.8689L35.4049 27.8214ZM36.025 24H35.875V24.0001L36.025 24ZM27.8214 35.4049L27.869 35.5471L28.0974 35.4706L27.928 35.2994L27.8214 35.4049ZM26.275 31.6375L26.425 31.6377V31.6375H26.275ZM35.9991 28.7818C36.5558 29.6299 36.8517 30.6227 36.85 31.6373L37.15 31.6377C37.1518 30.5645 36.8388 29.5143 36.2498 28.6172L35.9991 28.7818ZM36.85 31.6375C36.85 34.5164 34.5164 36.85 31.6375 36.85V37.15C34.6821 37.15 37.15 34.6821 37.15 31.6375H36.85ZM31.6375 36.85C30.5831 36.85 29.6021 36.5373 28.7818 35.999L28.6172 36.2499C29.485 36.8192 30.5229 37.15 31.6375 37.15V36.85ZM28.6453 35.9846C27.1639 36.5584 25.5888 36.8519 24.0002 36.85L23.9998 37.15C25.6256 37.1519 27.2376 36.8516 28.7537 36.2643L28.6453 35.9846ZM24 36.85C16.9033 36.85 11.15 31.0967 11.15 24H10.85C10.85 31.2624 16.7376 37.15 24 37.15V36.85ZM11.15 24C11.15 16.9033 16.9033 11.15 24 11.15V10.85C16.7376 10.85 10.85 16.7376 10.85 24H11.15ZM24 11.15C31.0967 11.15 36.85 16.9033 36.85 24H37.15C37.15 16.7376 31.2624 10.85 24 10.85V11.15ZM36.85 24C36.85 25.6387 36.5435 27.205 35.9846 28.6452L36.2643 28.7538C36.8364 27.2794 37.15 25.6763 37.15 24H36.85ZM35.5472 27.8689C35.9643 26.6217 36.1763 25.315 36.175 23.9999L35.875 24.0001C35.8763 25.2829 35.6695 26.5573 35.2626 27.7738L35.5472 27.8689ZM36.175 24C36.175 17.2758 30.7242 11.825 24 11.825V12.125C30.5585 12.125 35.875 17.4415 35.875 24H36.175ZM24 11.825C17.2758 11.825 11.825 17.2758 11.825 24H12.125C12.125 17.4415 17.4415 12.125 24 12.125V11.825ZM11.825 24C11.825 30.7242 17.2758 36.175 24 36.175V35.875C17.4415 35.875 12.125 30.5585 12.125 24H11.825ZM24 36.175C25.3521 36.175 26.6533 35.9546 27.869 35.5471L27.7737 35.2627C26.5883 35.6599 25.3194 35.875 24 35.875V36.175ZM27.928 35.2994C26.9634 34.325 26.4232 33.0088 26.425 31.6377L26.125 31.6373C26.1231 33.0875 26.6945 34.4797 27.7147 35.5104L27.928 35.2994ZM26.425 31.6375C26.425 28.7586 28.7586 26.425 31.6375 26.425V26.125C28.5929 26.125 26.125 28.5929 26.125 31.6375H26.425ZM31.6375 26.425C33.0648 26.425 34.3583 26.9985 35.2995 27.9281L35.5103 27.7146C34.5152 26.7319 33.1469 26.125 31.6375 26.125V26.425ZM31.6375 36.175C34.1435 36.175 36.175 34.1435 36.175 31.6375H35.875C35.875 33.9779 33.9779 35.875 31.6375 35.875V36.175ZM36.175 31.6375C36.175 29.1315 34.1435 27.1 31.6375 27.1V27.4C33.9779 27.4 35.875 29.2971 35.875 31.6375H36.175ZM31.6375 27.1C29.1315 27.1 27.1 29.1315 27.1 31.6375H27.4C27.4 29.2971 29.2971 27.4 31.6375 27.4V27.1ZM27.1 31.6375C27.1 34.1435 29.1315 36.175 31.6375 36.175V35.875C29.2971 35.875 27.4 33.9779 27.4 31.6375H27.1Z" fill="#EF4829"/>
    <path fill-rule="evenodd" clip-rule="evenodd" d="M31.6131 30.9235L32.9918 29.5448C33.1149 29.4216 33.2944 29.3735 33.4627 29.4185C33.6309 29.4636 33.7624 29.595 33.8075 29.7632C33.8526 29.9314 33.8046 30.111 33.6814 30.2342L32.3025 31.6131L33.6814 32.9918C33.8046 33.115 33.8527 33.2945 33.8077 33.4628C33.7626 33.6311 33.6311 33.7626 33.4628 33.8077C33.2945 33.8527 33.115 33.8046 32.9918 33.6814L31.6131 32.3025L30.2342 33.6814C30.111 33.8046 29.9314 33.8526 29.7632 33.8075C29.595 33.7624 29.4636 33.6309 29.4185 33.4627C29.3735 33.2944 29.4216 33.1149 29.5448 32.9918L30.9235 31.6131L29.5448 30.2342C29.4181 30.1118 29.3673 29.9305 29.4119 29.7601C29.4565 29.5896 29.5896 29.4565 29.7601 29.4119C29.9305 29.3673 30.1118 29.4181 30.2342 29.5448L31.6131 30.9235Z" fill="#EF4829" stroke="#EF4829" stroke-width="0.3"/>
    <rect x="26.5186" y="17.6084" width="0.975" height="13.65" rx="0.4875" transform="rotate(25 26.5186 17.6084)" fill="#EF4829" stroke="#EF4829" stroke-width="0.3"/>
    <path fill-rule="evenodd" clip-rule="evenodd" d="M16.4051 23.9961L19.2749 26.8655C19.4652 27.056 19.4652 27.3647 19.2747 27.555C19.0843 27.7454 18.7756 27.7453 18.5852 27.5549L15.3677 24.3374C15.2681 24.2377 15.2164 24.0997 15.2261 23.9591C15.2359 23.8184 15.306 23.6889 15.4184 23.6038L18.5904 20.4322C18.7818 20.2475 19.0859 20.2503 19.2738 20.4384C19.4618 20.6266 19.4643 20.9306 19.2794 21.1218L16.4051 23.9961ZM31.3464 25.625L32.6337 24.3377C32.7335 24.238 32.7853 24.1 32.7756 23.9593C32.766 23.8186 32.6958 23.6889 32.5833 23.6038L29.4113 20.4322C29.2199 20.2475 28.9159 20.2503 28.7279 20.4384C28.54 20.6266 28.5375 20.9306 28.7223 21.1218L31.5966 23.9961L29.7301 25.8623C30.2536 25.7011 30.7987 25.6211 31.3464 25.625Z" fill="#EF4829"/>
    <path d="M19.2749 26.8655L19.381 26.7595L19.3809 26.7595L19.2749 26.8655ZM18.5852 27.5549L18.6913 27.4488L18.6913 27.4488L18.5852 27.5549ZM15.3677 24.3374L15.2617 24.4434L15.2617 24.4434L15.3677 24.3374ZM15.4184 23.6038L15.5089 23.7235L15.5172 23.7172L15.5245 23.7099L15.4184 23.6038ZM18.5904 20.4322L18.4863 20.3242L18.4844 20.3261L18.5904 20.4322ZM19.2794 21.1218L19.3855 21.2279L19.3873 21.2261L19.2794 21.1218ZM32.6337 24.3377L32.5277 24.2315L32.5276 24.2316L32.6337 24.3377ZM32.5833 23.6038L32.4772 23.7099L32.4846 23.7172L32.4928 23.7235L32.5833 23.6038ZM29.4113 20.4322L29.5174 20.3261L29.5155 20.3242L29.4113 20.4322ZM28.7223 21.1218L28.6145 21.2261L28.6162 21.2279L28.7223 21.1218ZM31.5966 23.9961L31.7027 24.1022L31.8088 23.9961L31.7027 23.89L31.5966 23.9961ZM29.7301 25.8623L29.6241 25.7562L29.7743 26.0056L29.7301 25.8623ZM16.2991 24.1022L19.1688 26.9716L19.3809 26.7595L16.5112 23.89L16.2991 24.1022ZM19.1688 26.9716C19.3006 27.1034 19.3005 27.3171 19.1687 27.4489L19.3808 27.6611C19.6298 27.4122 19.6299 27.0085 19.381 26.7595L19.1688 26.9716ZM19.1687 27.4489C19.0368 27.5807 18.8231 27.5807 18.6913 27.4488L18.4791 27.6609C18.7281 27.9099 19.1317 27.91 19.3808 27.6611L19.1687 27.4489ZM18.6913 27.4488L15.4738 24.2313L15.2617 24.4434L18.4792 27.6609L18.6913 27.4488ZM15.4738 24.2313C15.4048 24.1623 15.3691 24.0668 15.3758 23.9694L15.0765 23.9487C15.0638 24.1326 15.1313 24.313 15.2617 24.4434L15.4738 24.2313ZM15.3758 23.9694C15.3825 23.872 15.4311 23.7823 15.5089 23.7235L15.328 23.4842C15.1809 23.5954 15.0892 23.7648 15.0765 23.9487L15.3758 23.9694ZM15.5245 23.7099L18.6965 20.5382L18.4844 20.3261L15.3124 23.4978L15.5245 23.7099ZM18.6946 20.5401C18.8271 20.4123 19.0376 20.4142 19.1677 20.5444L19.3799 20.3324C19.1341 20.0864 18.7365 20.0827 18.4863 20.3242L18.6946 20.5401ZM19.1677 20.5444C19.2978 20.6747 19.2996 20.8852 19.1716 21.0176L19.3873 21.2261C19.629 20.976 19.6257 20.5784 19.3799 20.3324L19.1677 20.5444ZM19.1734 21.0157L16.2991 23.89L16.5112 24.1022L19.3855 21.2279L19.1734 21.0157ZM31.4524 25.7311L32.7397 24.4438L32.5276 24.2316L31.2403 25.5189L31.4524 25.7311ZM32.7397 24.4438C32.8702 24.3135 32.9379 24.133 32.9253 23.949L32.626 23.9696C32.6327 24.067 32.5968 24.1625 32.5277 24.2315L32.7397 24.4438ZM32.9253 23.949C32.9126 23.765 32.8209 23.5955 32.6738 23.4842L32.4928 23.7235C32.5707 23.7824 32.6193 23.8721 32.626 23.9696L32.9253 23.949ZM32.6894 23.4978L29.5174 20.3261L29.3052 20.5382L32.4772 23.7099L32.6894 23.4978ZM29.5155 20.3242C29.2652 20.0827 28.8676 20.0864 28.6218 20.3324L28.834 20.5444C28.9642 20.4142 29.1747 20.4123 29.3072 20.5401L29.5155 20.3242ZM28.6218 20.3324C28.376 20.5784 28.3728 20.976 28.6145 21.2261L28.8302 21.0176C28.7022 20.8852 28.7039 20.6747 28.834 20.5444L28.6218 20.3324ZM28.6162 21.2279L31.4905 24.1022L31.7027 23.89L28.8284 21.0157L28.6162 21.2279ZM31.4906 23.89L29.6241 25.7562L29.8362 25.9683L31.7027 24.1022L31.4906 23.89ZM29.7743 26.0056C30.2831 25.849 30.8129 25.7712 31.3453 25.775L31.3474 25.475C30.7844 25.471 30.2241 25.5532 29.686 25.7189L29.7743 26.0056Z" fill="#EF4829"/>
</svg>

<svg fill="none" height="48" width="48" xmlns="http://www.w3.org/2000/svg"><g fill="#ef4829"><circle cx="24" cy="24" fill-opacity=".1" r="24"/><path clip-rule="evenodd" d="M36.124 28.7a5.362 5.362 0 0 1-7.425 7.425c-1.498.58-3.092.877-4.699.875-7.18 0-13-5.82-13-13s5.82-13 13-13 13 5.82 13 13c0 1.657-.31 3.242-.875 4.7zm-.72-.879A12.01 12.01 0 0 0 36.026 24c0-6.641-5.384-12.025-12.025-12.025S11.975 17.359 11.975 24 17.359 36.025 24 36.025c1.336 0 2.62-.218 3.821-.62a5.362 5.362 0 0 1 7.584-7.584zm-3.767 8.204a4.387 4.387 0 1 0 0-8.775 4.387 4.387 0 0 0 0 8.775z" fill-rule="evenodd"/><path d="m36.124 28.7-.14-.055-.027.072.042.065zM37 31.637h-.15zm-8.3 4.486.082-.125-.065-.042-.072.028zM24 37v-.15zm11.405-9.179-.106.107.172.17.076-.23zm.62-3.821h-.15zm-8.204 11.405.048.142.228-.076-.169-.172zm-1.546-3.768h.15zm9.724-2.855a5.18 5.18 0 0 1 .851 2.855h.3a5.487 5.487 0 0 0-.9-3.02zm.851 2.856a5.212 5.212 0 0 1-5.213 5.212v.3a5.512 5.512 0 0 0 5.513-5.513zm-5.213 5.212a5.187 5.187 0 0 1-2.855-.851l-.165.25c.868.57 1.906.901 3.02.901zm-2.992-.865A12.818 12.818 0 0 1 24 36.85v.3a13.118 13.118 0 0 0 4.754-.886zM24 36.85c-7.097 0-12.85-5.753-12.85-12.85h-.3c0 7.262 5.888 13.15 13.15 13.15zM11.15 24c0-7.097 5.753-12.85 12.85-12.85v-.3c-7.262 0-13.15 5.888-13.15 13.15zM24 11.15c7.097 0 12.85 5.753 12.85 12.85h.3c0-7.262-5.888-13.15-13.15-13.15zM36.85 24c0 1.639-.306 3.205-.865 4.645l.28.109A13.14 13.14 0 0 0 37.15 24zm-1.303 3.869c.417-1.247.63-2.554.628-3.87l-.3.001a11.858 11.858 0 0 1-.612 3.774zM36.175 24c0-6.724-5.45-12.175-12.175-12.175v.3c6.559 0 11.875 5.316 11.875 11.875zM24 11.825c-6.724 0-12.175 5.45-12.175 12.175h.3c0-6.559 5.317-11.875 11.875-11.875zM11.825 24c0 6.724 5.45 12.175 12.175 12.175v-.3c-6.558 0-11.875-5.316-11.875-11.875zM24 36.175c1.352 0 2.653-.22 3.869-.628l-.095-.284a11.857 11.857 0 0 1-3.774.612zm3.928-.876a5.195 5.195 0 0 1-1.503-3.661h-.3a5.495 5.495 0 0 0 1.59 3.872zm-1.503-3.662a5.212 5.212 0 0 1 5.213-5.212v-.3a5.512 5.512 0 0 0-5.513 5.512zm5.213-5.212c1.427 0 2.72.573 3.662 1.503l.21-.213a5.495 5.495 0 0 0-3.872-1.59zm0 9.75a4.537 4.537 0 0 0 4.537-4.537h-.3a4.237 4.237 0 0 1-4.237 4.237zm4.537-4.537a4.537 4.537 0 0 0-4.537-4.538v.3a4.237 4.237 0 0 1 4.237 4.237zM31.638 27.1a4.537 4.537 0 0 0-4.538 4.537h.3a4.237 4.237 0 0 1 4.238-4.237zM27.1 31.637a4.537 4.537 0 0 0 4.537 4.538v-.3a4.237 4.237 0 0 1-4.237-4.237z"/><path clip-rule="evenodd" d="m31.613 30.924 1.379-1.38a.488.488 0 1 1 .69.69l-1.38 1.38 1.38 1.378a.488.488 0 0 1-.69.69l-1.379-1.38-1.379 1.38a.488.488 0 0 1-.69-.69l1.38-1.379-1.38-1.379a.488.488 0 1 1 .69-.69z" fill-rule="evenodd" stroke="#ef4829" stroke-width=".3"/><rect height="13.65" rx=".487" stroke="#ef4829" stroke-width=".3" transform="rotate(25 26.519 17.608)" width=".975" x="26.519" y="17.608"/><path clip-rule="evenodd" d="m16.405 23.996 2.87 2.87a.488.488 0 0 1-.69.689l-3.217-3.218a.488.488 0 0 1 .05-.733l3.172-3.172a.488.488 0 0 1 .69.69zm14.941 1.629 1.288-1.287a.488.488 0 0 0-.05-.734l-3.173-3.172a.488.488 0 0 0-.689.69l2.875 2.874-1.867 1.866a5.362 5.362 0 0 1 1.616-.237z" fill-rule="evenodd"/><path d="m19.275 26.866.106-.106zm-.69.689.106-.106zm-3.217-3.218-.106.106zm.05-.733.09.12.01-.007.007-.007zm3.172-3.172-.104-.108-.002.002zm.69.69.106.106.001-.002zm13.354 3.216-.106-.107zm-.05-.734-.107.106.008.007.008.007zm-3.173-3.172.106-.106-.001-.002zm-.689.69-.108.104.002.002zm2.875 2.874.106.106.106-.106-.106-.106zm-1.867 1.866-.106-.106.15.25zm-13.43-1.76 2.869 2.87.212-.213-2.87-2.869zm2.869 2.87a.338.338 0 0 1 0 .477l.212.212a.638.638 0 0 0 0-.902zm0 .477a.338.338 0 0 1-.478 0l-.212.212c.25.249.653.249.902 0zm-.478 0-3.217-3.218-.212.212 3.217 3.218zm-3.217-3.218a.338.338 0 0 1-.098-.262l-.3-.02a.637.637 0 0 0 .186.494zm-.098-.262a.337.337 0 0 1 .133-.246l-.181-.239a.637.637 0 0 0-.251.465zm.149-.26 3.172-3.17-.213-.213-3.172 3.172zm3.17-3.169a.338.338 0 0 1 .473.004l.212-.212a.637.637 0 0 0-.894-.008zm.473.004c.13.13.132.341.004.474l.215.208a.638.638 0 0 0-.007-.894zm.005.472L16.3 23.89l.212.212 2.875-2.874zm12.28 4.715 1.287-1.287-.212-.212-1.288 1.287zm1.287-1.287a.638.638 0 0 0 .185-.495l-.299.02a.337.337 0 0 1-.098.262zm.185-.495a.638.638 0 0 0-.251-.465l-.181.24a.337.337 0 0 1 .133.246zm-.236-.451-3.172-3.172-.212.212 3.172 3.172zm-3.173-3.174a.638.638 0 0 0-.894.008l.212.212c.13-.13.34-.132.473-.004zm-.894.008a.638.638 0 0 0-.007.894l.215-.208a.338.338 0 0 1 .004-.474zm-.006.896 2.875 2.874.212-.212-2.875-2.874zm2.875 2.662-1.867 1.866.212.212 1.867-1.866zm-1.717 2.116a5.214 5.214 0 0 1 1.571-.231l.002-.3a5.512 5.512 0 0 0-1.661.244z"/></g></svg>
